X: 1
T: Sandy Boys - Amix
R: reel
M: 4/4
L: 1/8
Z: Contributed 2017-11-26 01:20:55 by Terry Terry_cowan@hotmail.com
K: Amix
|: a2g2e2g2|edc2A2eg|a2g2e2g2|a2>b2a2eg|a2g2e2g2|edc2A4|c4d2c2|A8 :|
|: e4e4|d2c2A4|cBA2c2c2|d6cd|e4e4|d2c2A4|A2c2d2c2|A8:|

